docs/img/whatsapp.svg

<svg width="25" height="25" viewBox="0 0 25 25" fill="none" xmlns="http://www.w3.org/2000/svg">
<path fill-rule="evenodd" clip-rule="evenodd" d="M24.4567 12.0443C24.454 18.6 19.1211 23.9342 12.5641 23.9368H12.5592C10.5688 23.9361 8.61304 23.4368 6.87599 22.4893L0.571533 24.1431L2.25871 17.9804C1.21798 16.1768 0.670349 14.131 0.671241 12.0349C0.67385 5.47781 6.00888 0.143066 12.564 0.143066C15.7454 0.144439 18.7314 1.38295 20.9767 3.63091C23.222 5.87875 24.4579 8.86668 24.4567 12.0443ZM3.42682 21.3177L7.16797 20.3363L7.52892 20.5506C9.04657 21.4512 10.7862 21.9277 12.56 21.9284H12.564C18.0121 21.9284 22.4464 17.494 22.4485 12.0437C22.4496 9.40243 21.4224 6.91899 19.5561 5.05058C17.6899 3.18217 15.2081 2.1527 12.5679 2.15179C7.11552 2.15179 2.68122 6.58568 2.67906 12.0356C2.67829 13.9034 3.20089 15.7224 4.19036 17.2961L4.42538 17.6701L3.42682 21.3177Z" fill="#BB8C5F"/>
<path d="M18.32 15.6151C18.2458 15.4912 18.0477 15.4168 17.7505 15.268C17.4534 15.1193 15.9924 14.4005 15.72 14.3012C15.4477 14.2021 15.2495 14.1526 15.0514 14.45C14.8534 14.7474 14.2839 15.4168 14.1105 15.6151C13.9372 15.8134 13.7638 15.8383 13.4668 15.6895C13.1696 15.5408 12.2121 15.227 11.0771 14.2146C10.1937 13.4266 9.59732 12.4536 9.42398 12.1561C9.25064 11.8586 9.4055 11.6978 9.55426 11.5496C9.68795 11.4164 9.85144 11.2025 10 11.029C10.1486 10.8555 10.1981 10.7315 10.2972 10.5333C10.3962 10.3349 10.3467 10.1614 10.2724 10.0127C10.1981 9.86394 9.60382 8.40127 9.3562 7.80627C9.11497 7.22683 8.87 7.30533 8.68761 7.29617C8.51448 7.28748 8.31616 7.28564 8.11808 7.28564C7.91999 7.28564 7.59804 7.36002 7.32567 7.65752C7.0533 7.95502 6.28564 8.67394 6.28564 10.1365C6.28564 11.5992 7.35042 13.0122 7.49901 13.2105C7.64758 13.4089 9.59437 16.4103 12.5753 17.6974C13.2843 18.0036 13.8377 18.1864 14.2693 18.3234C14.9812 18.5496 15.629 18.5177 16.141 18.4411C16.7119 18.3558 17.8991 17.7223 18.1468 17.0282C18.3943 16.334 18.3943 15.739 18.32 15.6151Z" fill="#BB8C5F"/>
</svg>

<svg width="25" height="25" fill="none" xmlns="http://www.w3.org/2000/svg"><path fill-rule="evenodd" clip-rule="evenodd" d="M24.457 12.044c-.003 6.556-5.336 11.89-11.893 11.893h-.005c-1.99 0-3.946-.5-5.683-1.448L.572 24.143l1.687-6.163A11.871 11.871 0 0 1 .67 12.035C.674 5.478 6.01.143 12.564.143a11.816 11.816 0 0 1 8.413 3.488 11.82 11.82 0 0 1 3.48 8.413Zm-21.03 9.274 3.741-.982.36.215a9.87 9.87 0 0 0 5.032 1.377h.004c5.448 0 9.882-4.434 9.884-9.884a9.825 9.825 0 0 0-2.892-6.993 9.817 9.817 0 0 0-6.988-2.9c-5.452 0-9.887 4.435-9.889 9.885a9.86 9.86 0 0 0 1.511 5.26l.235.374-.998 3.648Z" fill="#BB8C5F"/><path d="M18.32 15.615c-.074-.124-.272-.198-.57-.347-.297-.149-1.758-.868-2.03-.967-.272-.099-.47-.148-.669.149-.198.297-.767.967-.94 1.165-.174.198-.347.223-.644.075-.297-.15-1.255-.463-2.39-1.475-.883-.788-1.48-1.761-1.653-2.059-.173-.297-.018-.458.13-.606.134-.134.297-.348.446-.521.149-.174.198-.297.297-.496.1-.198.05-.372-.025-.52-.074-.15-.668-1.612-.916-2.207-.241-.58-.486-.5-.668-.51a11.81 11.81 0 0 0-.57-.01c-.198 0-.52.074-.792.372-.273.297-1.04 1.016-1.04 2.478 0 1.463 1.064 2.876 1.213 3.075.149.198 2.095 3.2 5.076 4.486.71.307 1.263.49 1.694.626.712.227 1.36.195 1.872.118.57-.085 1.758-.719 2.006-1.413.247-.694.247-1.289.173-1.413Z" fill="#BB8C5F"/></svg>
